images/3246555.svg

<?xml version="1.0" encoding="UTF-8"?>
<svg xmlns="http://www.w3.org/2000/svg" xmlns:xlink="http://www.w3.org/1999/xlink" width="300pt" height="300pt" viewBox="0 0 300 300" version="1.1">
<defs>
<g>
<symbol overflow="visible" id="glyph0-0">
<path style="stroke:none;" d="M 0.796875 2.828125 L 0.796875 -11.28125 L 8.796875 -11.28125 L 8.796875 2.828125 Z M 1.703125 1.9375 L 7.90625 1.9375 L 7.90625 -10.390625 L 1.703125 -10.390625 Z M 1.703125 1.9375 "/>
</symbol>
<symbol overflow="visible" id="glyph0-1">
<path style="stroke:none;" d="M 1.578125 -11.671875 L 3.703125 -11.671875 L 8.875 -1.90625 L 8.875 -11.671875 L 10.40625 -11.671875 L 10.40625 0 L 8.28125 0 L 3.109375 -9.765625 L 3.109375 0 L 1.578125 0 Z M 1.578125 -11.671875 "/>
</symbol>
<symbol overflow="visible" id="glyph0-2">
<path style="stroke:none;" d="M 3.15625 -10.375 L 3.15625 -5.984375 L 5.140625 -5.984375 C 5.867188 -5.984375 6.429688 -6.171875 6.828125 -6.546875 C 7.234375 -6.929688 7.4375 -7.476562 7.4375 -8.1875 C 7.4375 -8.882812 7.234375 -9.421875 6.828125 -9.796875 C 6.429688 -10.179688 5.867188 -10.375 5.140625 -10.375 Z M 1.578125 -11.671875 L 5.140625 -11.671875 C 6.441406 -11.671875 7.425781 -11.375 8.09375 -10.78125 C 8.769531 -10.1875 9.109375 -9.320312 9.109375 -8.1875 C 9.109375 -7.03125 8.769531 -6.15625 8.09375 -5.5625 C 7.425781 -4.976562 6.441406 -4.6875 5.140625 -4.6875 L 3.15625 -4.6875 L 3.15625 0 L 1.578125 0 Z M 1.578125 -11.671875 "/>
</symbol>
<symbol overflow="visible" id="glyph0-3">
<path style="stroke:none;" d="M 6.3125 -10.59375 C 5.164062 -10.59375 4.253906 -10.164062 3.578125 -9.3125 C 2.898438 -8.457031 2.5625 -7.296875 2.5625 -5.828125 C 2.5625 -4.359375 2.898438 -3.195312 3.578125 -2.34375 C 4.253906 -1.488281 5.164062 -1.0625 6.3125 -1.0625 C 7.457031 -1.0625 8.363281 -1.488281 9.03125 -2.34375 C 9.695312 -3.195312 10.03125 -4.359375 10.03125 -5.828125 C 10.03125 -7.296875 9.695312 -8.457031 9.03125 -9.3125 C 8.363281 -10.164062 7.457031 -10.59375 6.3125 -10.59375 Z M 6.3125 -11.875 C 7.945312 -11.875 9.253906 -11.328125 10.234375 -10.234375 C 11.210938 -9.140625 11.703125 -7.671875 11.703125 -5.828125 C 11.703125 -3.984375 11.210938 -2.507812 10.234375 -1.40625 C 9.253906 -0.3125 7.945312 0.234375 6.3125 0.234375 C 4.664062 0.234375 3.351562 -0.3125 2.375 -1.40625 C 1.394531 -2.507812 0.90625 -3.984375 0.90625 -5.828125 C 0.90625 -7.671875 1.394531 -9.140625 2.375 -10.234375 C 3.351562 -11.328125 4.664062 -11.875 6.3125 -11.875 Z M 6.3125 -11.875 "/>
</symbol>
</g>
</defs>
<g id="surface51829">
<rect x="0" y="0" width="300" height="300" style="fill:rgb(100%,100%,100%);fill-opacity:1;stroke:none;"/>
<path style=" stroke:none;fill-rule:nonzero;fill:rgb(0%,0%,0%);fill-opacity:1;" d="M 54.757812 94.097656 L 44.78125 56.558594 L 32.535156 62.242188 Z M 54.757812 94.097656 "/>
<path style="fill:none;stroke-width:1.2;stroke-linecap:butt;stroke-linejoin:miter;stroke:rgb(0%,0%,0%);stroke-opacity:1;stroke-miterlimit:10;" d="M 54.757812 94.097656 L 32.757812 125.386719 "/>
<path style="fill:none;stroke-width:1.2;stroke-linecap:butt;stroke-linejoin:miter;stroke:rgb(0%,0%,0%);stroke-opacity:1;stroke-miterlimit:10;" d="M 92.855469 97.503906 L 54.757812 94.097656 "/>
<path style="fill:none;stroke-width:1.2;stroke-linecap:butt;stroke-linejoin:miter;stroke:rgb(0%,0%,0%);stroke-opacity:1;stroke-miterlimit:10;" d="M 32.757812 125.386719 L 48.855469 160.085938 "/>
<path style="fill:none;stroke-width:1.2;stroke-linecap:butt;stroke-linejoin:miter;stroke:rgb(0%,0%,0%);stroke-opacity:1;stroke-miterlimit:10;" d="M 48.855469 160.085938 L 86.957031 163.492188 "/>
<path style="fill:none;stroke-width:1.2;stroke-linecap:butt;stroke-linejoin:miter;stroke:rgb(0%,0%,0%);stroke-opacity:1;stroke-miterlimit:10;" d="M 86.957031 163.492188 L 97.953125 147.84375 "/>
<path style="fill:none;stroke-width:1.2;stroke-linecap:butt;stroke-linejoin:miter;stroke:rgb(0%,0%,100%);stroke-opacity:1;stroke-miterlimit:10;" d="M 97.953125 147.84375 L 108.953125 132.199219 "/>
<path style="fill:none;stroke-width:1.2;stroke-linecap:butt;stroke-linejoin:miter;stroke:rgb(0%,0%,100%);stroke-opacity:1;stroke-miterlimit:10;" d="M 108.953125 132.199219 L 100.90625 114.851562 "/>
<path style="fill:none;stroke-width:1.2;stroke-linecap:butt;stroke-linejoin:miter;stroke:rgb(0%,0%,0%);stroke-opacity:1;stroke-miterlimit:10;" d="M 100.90625 114.851562 L 92.855469 97.503906 "/>
<path style="fill:none;stroke-width:1.2;stroke-linecap:butt;stroke-linejoin:miter;stroke:rgb(0%,0%,100%);stroke-opacity:1;stroke-miterlimit:10;" d="M 108.953125 132.199219 L 128.003906 133.902344 "/>
<path style="fill:none;stroke-width:1.2;stroke-linecap:butt;stroke-linejoin:miter;stroke:rgb(0%,0%,0%);stroke-opacity:1;stroke-miterlimit:10;" d="M 128.003906 133.902344 L 147.050781 135.605469 "/>
<path style=" stroke:none;fill-rule:nonzero;fill:rgb(100%,100%,100%);fill-opacity:1;" d="M 102.953125 122.699219 L 114.953125 122.699219 L 114.953125 141.699219 L 102.953125 141.699219 Z M 102.953125 122.699219 "/>
<g style="fill:rgb(0%,0%,100%);fill-opacity:1;">
  <use xlink:href="#glyph0-1" x="102.953125" y="137.550781"/>
</g>
<path style="fill:none;stroke-width:1.2;stroke-linecap:butt;stroke-linejoin:miter;stroke:rgb(0%,0%,0%);stroke-opacity:1;stroke-miterlimit:10;" d="M 147.050781 135.605469 L 155.101562 152.953125 "/>
<path style="fill:none;stroke-width:1.2;stroke-linecap:butt;stroke-linejoin:miter;stroke:rgb(100%,50%,0%);stroke-opacity:1;stroke-miterlimit:10;" d="M 155.101562 152.953125 L 163.152344 170.300781 "/>
<path style="fill:none;stroke-width:1.2;stroke-linecap:butt;stroke-linejoin:miter;stroke:rgb(100%,50%,0%);stroke-opacity:1;stroke-miterlimit:10;" d="M 159.070312 172.195312 L 167.121094 189.546875 "/>
<path style="fill:none;stroke-width:1.2;stroke-linecap:butt;stroke-linejoin:miter;stroke:rgb(100%,0%,0%);stroke-opacity:1;stroke-miterlimit:10;" d="M 167.121094 189.546875 L 175.167969 206.894531 "/>
<path style="fill:none;stroke-width:1.2;stroke-linecap:butt;stroke-linejoin:miter;stroke:rgb(100%,50%,0%);stroke-opacity:1;stroke-miterlimit:10;" d="M 167.234375 168.410156 L 175.285156 185.757812 "/>
<path style="fill:none;stroke-width:1.2;stroke-linecap:butt;stroke-linejoin:miter;stroke:rgb(100%,0%,0%);stroke-opacity:1;stroke-miterlimit:10;" d="M 175.285156 185.757812 L 183.332031 203.105469 "/>
<path style="fill:none;stroke-width:1.2;stroke-linecap:butt;stroke-linejoin:miter;stroke:rgb(100%,50%,0%);stroke-opacity:1;stroke-miterlimit:10;" d="M 163.152344 170.300781 L 145.804688 178.351562 "/>
<path style="fill:none;stroke-width:1.2;stroke-linecap:butt;stroke-linejoin:miter;stroke:rgb(0%,0%,0%);stroke-opacity:1;stroke-miterlimit:10;" d="M 145.804688 178.351562 L 128.453125 186.402344 "/>
<path style="fill:none;stroke-width:1.2;stroke-linecap:butt;stroke-linejoin:miter;stroke:rgb(100%,50%,0%);stroke-opacity:1;stroke-miterlimit:10;" d="M 163.152344 170.300781 L 180.5 162.253906 "/>
<path style="fill:none;stroke-width:1.2;stroke-linecap:butt;stroke-linejoin:miter;stroke:rgb(0%,0%,0%);stroke-opacity:1;stroke-miterlimit:10;" d="M 180.5 162.253906 L 197.847656 154.203125 "/>
<path style=" stroke:none;fill-rule:nonzero;fill:rgb(100%,100%,100%);fill-opacity:1;" d="M 158.152344 160.800781 L 168.152344 160.800781 L 168.152344 179.800781 L 158.152344 179.800781 Z M 158.152344 160.800781 "/>
<g style="fill:rgb(100%,50%,0%);fill-opacity:1;">
  <use xlink:href="#glyph0-2" x="158.152344" y="175.652344"/>
</g>
<path style=" stroke:none;fill-rule:nonzero;fill:rgb(100%,100%,100%);fill-opacity:1;" d="M 173.25 195.5 L 186.25 195.5 L 186.25 214.5 L 173.25 214.5 Z M 173.25 195.5 "/>
<g style="fill:rgb(100%,0%,0%);fill-opacity:1;">
  <use xlink:href="#glyph0-3" x="173.25" y="210.351562"/>
</g>
<path style="fill:none;stroke-width:1.2;stroke-linecap:butt;stroke-linejoin:miter;stroke:rgb(0%,0%,0%);stroke-opacity:1;stroke-miterlimit:10;" d="M 128.453125 186.402344 L 125.046875 224.5 "/>
<path style="fill:none;stroke-width:1.2;stroke-linecap:butt;stroke-linejoin:miter;stroke:rgb(0%,0%,0%);stroke-opacity:1;stroke-miterlimit:10;" d="M 119.148438 189.410156 L 116.425781 219.890625 "/>
<path style="fill:none;stroke-width:1.2;stroke-linecap:butt;stroke-linejoin:miter;stroke:rgb(0%,0%,0%);stroke-opacity:1;stroke-miterlimit:10;" d="M 97.164062 164.402344 L 128.453125 186.402344 "/>
<path style="fill:none;stroke-width:1.2;stroke-linecap:butt;stroke-linejoin:miter;stroke:rgb(0%,0%,0%);stroke-opacity:1;stroke-miterlimit:10;" d="M 125.046875 224.5 L 90.351562 240.601562 "/>
<path style="fill:none;stroke-width:1.2;stroke-linecap:butt;stroke-linejoin:miter;stroke:rgb(0%,0%,0%);stroke-opacity:1;stroke-miterlimit:10;" d="M 90.351562 240.601562 L 59.0625 218.601562 "/>
<path style="fill:none;stroke-width:1.2;stroke-linecap:butt;stroke-linejoin:miter;stroke:rgb(0%,0%,0%);stroke-opacity:1;stroke-miterlimit:10;" d="M 92.398438 231.039062 L 67.367188 213.4375 "/>
<path style="fill:none;stroke-width:1.2;stroke-linecap:butt;stroke-linejoin:miter;stroke:rgb(0%,0%,0%);stroke-opacity:1;stroke-miterlimit:10;" d="M 59.0625 218.601562 L 62.46875 180.503906 "/>
<path style="fill:none;stroke-width:1.2;stroke-linecap:butt;stroke-linejoin:miter;stroke:rgb(0%,0%,0%);stroke-opacity:1;stroke-miterlimit:10;" d="M 62.46875 180.503906 L 97.164062 164.402344 "/>
<path style="fill:none;stroke-width:1.2;stroke-linecap:butt;stroke-linejoin:miter;stroke:rgb(0%,0%,0%);stroke-opacity:1;stroke-miterlimit:10;" d="M 69.726562 187.058594 L 97.480469 174.175781 "/>
<path style="fill:none;stroke-width:1.2;stroke-linecap:butt;stroke-linejoin:miter;stroke:rgb(0%,0%,0%);stroke-opacity:1;stroke-miterlimit:10;" d="M 197.847656 154.203125 L 229.140625 176.203125 "/>
<path style="fill:none;stroke-width:1.2;stroke-linecap:butt;stroke-linejoin:miter;stroke:rgb(0%,0%,0%);stroke-opacity:1;stroke-miterlimit:10;" d="M 206.152344 149.039062 L 231.1875 166.640625 "/>
<path style="fill:none;stroke-width:1.2;stroke-linecap:butt;stroke-linejoin:miter;stroke:rgb(0%,0%,0%);stroke-opacity:1;stroke-miterlimit:10;" d="M 201.253906 116.105469 L 197.847656 154.203125 "/>
<path style="fill:none;stroke-width:1.2;stroke-linecap:butt;stroke-linejoin:miter;stroke:rgb(0%,0%,0%);stroke-opacity:1;stroke-miterlimit:10;" d="M 229.140625 176.203125 L 263.835938 160.101562 "/>
<path style="fill:none;stroke-width:1.2;stroke-linecap:butt;stroke-linejoin:miter;stroke:rgb(0%,0%,0%);stroke-opacity:1;stroke-miterlimit:10;" d="M 263.835938 160.101562 L 267.242188 122.003906 "/>
<path style="fill:none;stroke-width:1.2;stroke-linecap:butt;stroke-linejoin:miter;stroke:rgb(0%,0%,0%);stroke-opacity:1;stroke-miterlimit:10;" d="M 255.210938 155.492188 L 257.9375 125.011719 "/>
<path style="fill:none;stroke-width:1.2;stroke-linecap:butt;stroke-linejoin:miter;stroke:rgb(0%,0%,0%);stroke-opacity:1;stroke-miterlimit:10;" d="M 267.242188 122.003906 L 235.949219 100.003906 "/>
<path style="fill:none;stroke-width:1.2;stroke-linecap:butt;stroke-linejoin:miter;stroke:rgb(0%,0%,0%);stroke-opacity:1;stroke-miterlimit:10;" d="M 235.949219 100.003906 L 201.253906 116.105469 "/>
<path style="fill:none;stroke-width:1.2;stroke-linecap:butt;stroke-linejoin:miter;stroke:rgb(0%,0%,0%);stroke-opacity:1;stroke-miterlimit:10;" d="M 236.269531 109.78125 L 208.511719 122.660156 "/>
</g>
</svg>

<svg xmlns="http://www.w3.org/2000/svg" xmlns:xlink="http://www.w3.org/1999/xlink" width="300pt" height="300pt" viewBox="0 0 300 300"><defs><symbol overflow="visible"><path d="M.797 2.828v-14.11h8V2.83zm.906-.89h6.203v-12.33H1.703zm0 0"/></symbol><symbol overflow="visible" id="a"><path d="M1.578-11.672h2.125l5.172 9.766v-9.766h1.53V0H8.282L3.11-9.766V0H1.577zm0 0"/></symbol><symbol overflow="visible" id="b"><path d="M3.156-10.375v4.39H5.14c.727 0 1.29-.187 1.688-.562.406-.383.61-.93.61-1.64 0-.696-.204-1.235-.61-1.61-.398-.383-.96-.578-1.687-.578zm-1.578-1.297H5.14c1.3 0 2.286.297 2.954.89.676.595 1.015 1.462 1.015 2.595 0 1.156-.34 2.03-1.016 2.624-.668.586-1.653.875-2.953.875H3.157V0H1.578zm0 0"/></symbol><symbol overflow="visible" id="c"><path d="M6.313-10.594c-1.15 0-2.06.43-2.735 1.28-.68.857-1.015 2.017-1.015 3.486 0 1.47.335 2.633 1.015 3.484.676.856 1.586 1.28 2.735 1.28 1.144.002 2.05-.424 2.718-1.28.665-.85 1-2.015 1-3.484 0-1.47-.335-2.63-1-3.484-.667-.852-1.573-1.282-2.717-1.282zm0-1.28c1.632 0 2.94.546 3.92 1.64.978 1.093 1.47 2.562 1.47 4.406 0 1.844-.492 3.32-1.47 4.422-.98 1.093-2.288 1.64-3.92 1.64-1.65 0-2.96-.546-3.938-1.64-.98-1.102-1.47-2.578-1.47-4.422 0-1.844.49-3.313 1.47-4.406.977-1.094 2.29-1.64 3.938-1.64zm0 0"/></symbol></defs><g><path fill="#fff" d="M0 0h300v300H0z"/><path d="M54.758 94.098l-9.977-37.54-12.245 5.684zm0 0"/><path d="M54.758 94.098l-22 31.29M92.855 97.504l-38.097-3.406M32.758 125.387l16.097 34.7M48.855 160.086l38.102 3.406M86.957 163.492l10.996-15.648" stroke-width="1.2" stroke="#000" stroke-miterlimit="10" fill="none"/><path d="M97.953 147.844l11-15.645M108.953 132.2l-8.047-17.348" stroke-width="1.2" stroke="#00f" stroke-miterlimit="10" fill="none"/><path d="M100.906 114.852l-8.05-17.348" stroke-width="1.2" stroke="#000" stroke-miterlimit="10" fill="none"/><path d="M108.953 132.2l19.05 1.702" stroke-width="1.2" stroke="#00f" stroke-miterlimit="10" fill="none"/><path d="M128.004 133.902l19.047 1.703" stroke-width="1.2" stroke="#000" stroke-miterlimit="10" fill="none"/><path d="M102.953 122.7h12v19h-12zm0 0" fill="#fff"/><use xlink:href="#a" x="102.953" y="137.551" fill="#00f"/><path d="M147.05 135.605l8.052 17.348" stroke-width="1.2" stroke="#000" stroke-miterlimit="10" fill="none"/><path d="M155.102 152.953l8.05 17.348M159.07 172.195l8.05 17.352" stroke-width="1.2" stroke="#ff7f00" stroke-miterlimit="10" fill="none"/><path d="M167.12 189.547l8.048 17.348" stroke-width="1.2" stroke="#f00" stroke-miterlimit="10" fill="none"/><path d="M167.234 168.41l8.05 17.348" stroke-width="1.2" stroke="#ff7f00" stroke-miterlimit="10" fill="none"/><path d="M175.285 185.758l8.047 17.347" stroke-width="1.2" stroke="#f00" stroke-miterlimit="10" fill="none"/><path d="M163.152 170.3l-17.347 8.052" stroke-width="1.2" stroke="#ff7f00" stroke-miterlimit="10" fill="none"/><path d="M145.805 178.352l-17.352 8.05" stroke-width="1.2" stroke="#000" stroke-miterlimit="10" fill="none"/><path d="M163.152 170.3l17.348-8.046" stroke-width="1.2" stroke="#ff7f00" stroke-miterlimit="10" fill="none"/><path d="M180.5 162.254l17.348-8.05" stroke-width="1.2" stroke="#000" stroke-miterlimit="10" fill="none"/><path d="M158.152 160.8h10v19h-10zm0 0" fill="#fff"/><use xlink:href="#b" x="158.152" y="175.652" fill="#ff7f00"/><path d="M173.25 195.5h13v19h-13zm0 0" fill="#fff"/><use xlink:href="#c" x="173.25" y="210.352" fill="#f00"/><path d="M128.453 186.402l-3.406 38.098M119.148 189.41l-2.722 30.48M97.164 164.402l31.29 22M125.047 224.5l-34.695 16.102M90.352 240.602l-31.29-22M92.398 231.04l-25.03-17.602M59.063 218.602l3.406-38.098M62.47 180.504l34.694-16.102M69.727 187.06l27.753-12.884M197.848 154.203l31.293 22M206.152 149.04l25.036 17.6M201.254 116.105l-3.406 38.098M229.14 176.203l34.696-16.1M263.836 160.102l3.406-38.098M255.21 155.492l2.727-30.48M267.242 122.004l-31.293-22M235.95 100.004l-34.696 16.1M236.27 109.78l-27.758 12.88" stroke-width="1.2" stroke="#000" stroke-miterlimit="10" fill="none"/></g></svg>
